X:1
T:Calcutta, 76.76 D
T:Calcutta, 76.76 D
T:Melody by Reginald Heber (1783-1826)
T:Public Domain Courtesy of the Cyber Hymnal™
C:Melody by Reginald Heber (1783-1826)
Z:Public Domain
Z:Courtesy of the Cyber Hymnal™
%%score ( 1 2 ) ( 3 4 )
L:1/8
Q:1/4=115
M:none
K:Eb
V:1 treble 
V:2 treble 
V:3 bass 
V:4 bass 
V:1
|: (EF) | [EG]2 [EG]2 [FG]2 [FG]2 | [EG]4 E2 E2 | [CF]2 [CF]2 [B,D]2 [B,D]2 | E6 :| B2 | %6
 [Ge]2 [Ge]2 [Ed]2 [Ec]2 | (B3 A) [EG]2 [EG]2 | [FA]2 [FB]2 [EG]2 E2 | [DF]6 [B,D]2 | %10
 [B,E]2 [B,=E]2 [CF]2 [CG]2 | (A2 c2) [GB]2 [FA]2 | [EG]2 [CF]2 [B,E]2 [B,D]2 | [B,E]6 |] %14
V:2
|: E2 | x8 | x4 E2 E2 | x8 | E6 :| (EF) | x8 | E4 x4 | x6 E2 | x8 | x8 | F4 x4 | x8 | x6 |] %14
V:3
|: (G,A,) | [E,B,]2 [E,B,]2 [D,=B,]2 [D,B,]2 | [C,C]4 [C,G,]2 [G,,B,]2 | %3
 [A,,A,]2 [A,,A,]2 [B,,F,]2 [B,,F,]2 | [E,G,]6 :| (G,A,) | [E,B,]2 [E,B,]2 [A,,A,]2 [C,A,]2 | %7
 (G,3 A,) [E,B,]2 [C,C]2 | [F,C]2 [D,B,]2 [E,B,]2 [C,=A,]2 | [B,,B,]6 [A,B,]2 | %10
 [G,B,]2 [G,B,]2 [F,A,]2 [=E,C]2 | A,4 [E,G,]2 [F,,C]2 | [G,,B,]2 [A,,A,]2 [B,,G,]2 [B,,F,]2 | %13
 [E,G,]6 |] %14
V:4
|: E,2 | x8 | x8 | x8 | x6 :| E,2 | x8 | E,4 x4 | x8 | x8 | x8 | (F,2 D,2) x4 | x8 | x6 |] %14

